packages/icons/svg/Outline/briefcase.svg

<svg fill="none" height="24" viewBox="0 0 24 24" width="24" xmlns="http://www.w3.org/2000/svg"><path clip-rule="evenodd" d="m20 18c0 .551-.449 1-1 1h-2v-10h2c.551 0 1 .449 1 1zm-16.00003 0v-8c0-.551.449-1 1-1h2v10h-2c-.551 0-1-.449-1-1zm6-12.49993c0-.276.22403-.5.50003-.5h3c.276 0 .5.224.5.5v1.49999h-4.00003zm-.99994 13.49993h5.99997v-10h-5.99997zm9.99997-12h-3v-1.5c0-1.378-1.122-2.5-2.5-2.5h-3c-1.378 0-2.5 1.122-2.5 2.5v1.5h-3c-1.654 0-3 1.346-3 3v8c0 1.654 1.346 3 3 3h14c1.654 0 3-1.346 3-3v-8c0-1.654-1.346-3-3-3z" fill="#6b7280" fill-rule="evenodd"/></svg>

<svg width="24" height="24" viewBox="0 0 24 24" fill="none" xmlns="http://www.w3.org/2000/svg">
<g id="Icon/Outline/briefcase">
<path id="Mask" fill-rule="evenodd" clip-rule="evenodd" d="M20 18C20 18.551 19.551 19 19 19H17V9H19C19.551 9 20 9.449 20 10V18ZM4 18V10C4 9.449 4.449 9 5 9H7V19H5C4.449 19 4 18.551 4 18ZM10 5.5C10 5.224 10.224 5 10.5 5H13.5C13.776 5 14 5.224 14 5.5V7H10V5.5ZM9 19H15V9H9V19ZM19 7H16V5.5C16 4.122 14.878 3 13.5 3H10.5C9.122 3 8 4.122 8 5.5V7H5C3.346 7 2 8.346 2 10V18C2 19.654 3.346 21 5 21H19C20.654 21 22 19.654 22 18V10C22 8.346 20.654 7 19 7Z" fill="#000000"/>
</g>
</svg>
